OCIO/ACES_1.0.3_hack/Look_sRGB_to_sRGBcg.spi1d
Version 1
From 0.0 1.0
Length 65536
Components 1
{
        0.0
        9.33789240556e-05
        0.000186759496738
        0.000280143366562
        0.000373532182045
        0.000466927591701
        0.000560331244047
        0.000653744787598
        0.00074716987087
        0.000840608142378
        0.00093406125064
        0.00102753084417
        0.00112101857148
        0.0012145260811
        0.00130805502153
        0.00140160704129
        0.00149518378889
        0.00158878691286
        0.00168241806171
        0.00177607888395
        0.00186977102811
        0.00196349614268
        0.0020572558762
        0.00215105187718
        0.00224488579413
        0.00233875927557
        0.00243267397001
        0.00252663152598
        0.00262063359198
        0.00271468181653
        0.00280877784815
        0.00290292333535
        0.00299711992665
        0.00309136927057
        0.00318567301562
        0.00328003281031
        0.00337445030316
        0.0034689271427
        0.00356346497742
        0.00365806545586
        0.00375273022652
        0.00384746093792
        0.00394225923858
        0.00403712677701
        0.00413206520172
        0.00422707616124
        0.00432216130409
        0.00441732227876
        0.00451256073379
        0.00460787831768
        0.00470327667896
        0.00479875746613
        0.00489432232772
        0.00498997291224
        0.0050857108682
        0.00518153784413
        0.00527745548853
        0.00537346544993
        0.00546956937683
        0.00556576891776
        0.00566206572123
        0.00575846143575
        0.00585495770984
        0.00595155619203
        0.00604825853081
        0.00614506637471
        0.00624198137225
        0.00633900517194
        0.00643613942229
        0.00653338577183
        0.00663074586906
        0.00672822136251
        0.00682581390069
        0.00692352513211
        0.00702135670529
        0.00711931026874
        0.00721738747099
        0.00731558996055
        0.00741391938593
        0.00751237739565
        0.00761096563822
        0.00770968576217
        0.007808539416
        0.00790752824824
        0.00800665390739
        0.00810591804197
        0.00820532230051
        0.00830486833151
        0.00840455778349
        0.00850439230497
        0.00860437354446
        0.00870450315047
        0.00880478277154
        0.00890521405616
        0.00900579865286
        0.00910653821015
        0.00920743437654
        0.00930848880056
        0.00940970313072
        0.00951107901553
        0.00961261810351
        0.00971432204318
        0.00981619248304
        0.00991823107163
        0.0100204394574
        0.010122819289
        0.0102253722148
        0.0103280998835
        0.0104310039434
        0.0105340860431
        0.0106373478311
        0.010740790956
        0.0108444170663
        0.0109482278104
        0.0110522248369
        0.0111564097943
        0.0112607843312
        0.0113653500959
        0.0114701087372
        0.0115750619034
        0.0116802112431
        0.0117855584048
        0.011891105037
        0.0119968527882
        0.012102803307
        0.0122089582418
        0.0123153702766
        0.0124221031828
        0.0125291527211
        0.0126365143845
        0.0127441836659
        0.0128521560584
        0.0129604270548
        0.0130689921482
        0.0131778468315
        0.0132869865976
        0.0133964069395
        0.0135061033503
        0.0136160713228
        0.01372630635
        0.0138368039249
        0.0139475595405
        0.0140585686897
        0.0141698268654
        0.0142813295607
        0.0143930722684
        0.0145050504816
        0.0146172596933
        0.0147296953963
        0.0148423530837
        0.0149552282484
        0.0150683163834
        0.0151816129816
        0.0152951135361
        0.0154088135397
        0.0155227084854
        0.0156367938662
        0.0157510651751
        0.015865517905
        0.0159801475489
        0.0160949495997
        0.0162099195505
        0.0163250528941
        0.0164403451235
        0.0165557917318
        0.0166713882118
        0.0167871300566
        0.016903012759
        0.0170190318121
        0.0171351827088
        0.0172514609421
        0.017367862005
        0.0174843813903
        0.0176010145912
        0.0177177571004
        0.0178346044111
        0.0179515520161
        0.0180685954084
        0.0181857300811
        0.018302951527
        0.0184202552391
        0.0185376367103
        0.0186550914338
        0.0187726149023
        0.0188902026089
        0.0190078500465
        0.0191255527081
        0.0192433060867
        0.0193611056752
        0.0194789469666
        0.0195968254538
        0.0197147366298
        0.0198326759876
        0.0199506390202
        0.0200686212205
        0.0201866180814
        0.0203046250959
        0.0204226377571
        0.0205406515578
        0.020658661991
        0.0207766645497
        0.0208946547268
        0.0210126280154
        0.0211305799083
        0.0212485058985
        0.0213664014791
        0.0214842621429
        0.021602083383
        0.0217198606922
        0.0218375895636
        0.0219552654901
        0.0220728839646
        0.0221904404803
        0.0223079305299
        0.0224253496065
        0.022542693203
        0.0226599568124
        0.0227771359277
        0.0228942260418
        0.0230112226476
        0.0231281212383
        0.0232449173066
        0.0233616063456
        0.0234781838483
        0.0235946453075
        0.0237109862164
        0.0238272020677
        0.0239432883546
        0.0240592405699
        0.0241750542066
        0.0242907247577
        0.0244062477161
        0.0245216185749
        0.0246368328269
        0.0247518859651
        0.0248667734826
        0.0249814908722
        0.0250960336269
        0.0252103972398
        0.0253245772037
        0.0254385690116
        0.0255523681564
        0.0256659701312
        0.025779370429
        0.0258925645426
        0.026005547965
        0.0261183161892
        0.0262308647082
        0.0263431890149
        0.0264552846023
        0.0265671469633
        0.0266788548172
        0.0267905422301
        0.0269022103777
        0.0270138584771
        0.0271254857455
        0.0272370914
        0.0273486746577
        0.0274602347357
        0.0275717708511
        0.027683282221
        0.0277947680625
        0.0279062275928
        0.0280176600289
        0.028129064588
        0.0282404404872
        0.0283517869436
        0.0284631031743
        0.0285743883964
        0.028685641827
        0.0287968626833
        0.0289080501823
        0.0290192035412
        0.0291303219771
        0.029241404707
        0.0293524509481
        0.0294634599176
        0.0295744308325
        0.0296853629099
        0.029796255367
        0.0299071074208
        0.0300179182885
        0.0301286871871
        0.0302394133339
        0.0303500959459
        0.0304607342402
        0.0305713274339
        0.0306818747441
        0.0307923753881
        0.0309028285827
        0.0310132335453
        0.0311235894928
        0.0312338956425
        0.0313441512113
        0.0314543554165
        0.0315645074751
        0.0316746066043
        0.0317846520211
        0.0318946429427
        0.0320045785862
        0.0321144581687
        0.0322242809073
        0.0323340460191
        0.0324437527212
        0.0325534002308
        0.0326629877649
        0.0327725145407
        0.0328819797753
        0.0329913826858
        0.0331007224893
        0.0332099984029
        0.0333192096437
        0.0334283554288
        0.0335374349754
        0.0336464475006
        0.0337553922214
        0.033864268355
        0.0339730751186
        0.0340818117291
        0.0341904774037
        0.0342990713596
        0.0344075928139
        0.0345160409835
        0.0346244150858
        0.0347327143377
        0.0348409379564
        0.0349490851591
        0.0350571551627
        0.0351651471845
        0.0352730604415
        0.0353808941509
        0.0354886475297
        0.0355963197951
        0.0357039101642
        0.0358114178541
        0.0359188420819
        0.0360261820647
        0.0361334370196
        0.0362406061638
        0.0363476887144
        0.0364546838884
        0.036561590903
        0.0366684089753
        0.0367751373224
        0.0368817751615
        0.0369883217095
        0.0370947761837
        0.0372011378012
        0.037307405779
        0.0374135793343
        0.0375196576842
        0.0376256400457
        0.0377315256361
        0.0378373136725
        0.0379430033718
        0.0380485939513
        0.0381540846281
        0.0382594746192
        0.0383647631418
        0.038469949413
        0.03857503265
        0.0386800120697
        0.0387848868894
        0.0388896563261
        0.0389943195969
        0.0390988759191
        0.0392033245096
        0.0393076645856
        0.0394118953642
        0.0395160160625
        0.0396200258976
        0.0397239240867
        0.0398277098469
        0.0399313823952
        0.0400349409487
        0.0401383847247
        0.0402417310423
        0.0403450165251
        0.0404482417268
        0.0405514060757
        0.0406545090003
        0.0407575499291
        0.0408605282906
        0.0409634435132
        0.0410662950254
        0.0411690822556
        0.0412718046322
        0.0413744615838
        0.0414770525388
        0.0415795769257
        0.0416820341729
        0.0417844237089
        0.041886744962
        0.0419889973609
        0.042091180334
        0.0421932933096
        0.0422953357163
        0.0423973069826
        0.0424992065368
        0.0426010338075
        0.042702788223
        0.042804469212
        0.0429060762027
        0.0430076086237
        0.0431090659035
        0.0432104474705
        0.0433117527531
        0.0434129811798
        0.0435141321791
        0.0436152051794
        0.0437161996092
        0.043817114897
        0.0439179504711
        0.0440187057602
        0.0441193801925
        0.0442199731966
        0.044320484201
        0.0444209126341
        0.0445212579243
        0.0446215195001
        0.04472169679
        0.0448217892224
        0.0449217962258
        0.0450217172287
        0.0451215516595
        0.0452212989466
        0.0453209585186
        0.0454205298038
        0.0455200122308
        0.045619405228
        0.0457187082239
        0.0458179206468
        0.0459170419253
        0.0460160714879
        0.046115008763
        0.046213853179
        0.0463126041644
        0.0464112611477
        0.0465098235573
        0.0466082908217
        0.0467066623693
        0.0468049376286
        0.0469031160281
        0.0470011969963
        0.0470991799614
        0.0471970643522
        0.0472948495969
        0.0473925351241
        0.0474901203621
        0.0475876047396
        0.0476849876849
        0.0477822686264
        0.0478794469927
        0.0479765222123
        0.0480734937134
        0.0481703609247
        0.0482671232746
        0.0483637801915
        0.0484603311039
        0.0485567754403
        0.048653112629
        0.0487493420987
        0.0488454632777
        0.0489414755944
        0.0490373784774
        0.0491331713551
        0.049228853656
        0.0493244248085
        0.0494198842411
        0.0495152313822
        0.0496104656603
        0.0497055865039
        0.0498005933414
        0.0498954856013
        0.049990262712
        0.050084924102
        0.0501794691997
        0.0502738974336
        0.0503682082322
        0.050462401024
        0.0505564752373
        0.0506504303006
        0.0507442656425
        0.0508379806913
        0.0509315748756
        0.0510250476237
        0.0511183983641
        0.0512116265253
        0.0513047315358
        0.051397712824
        0.0514905698184
        0.0515833019474
        0.0516759086394
        0.0517683893231
        0.0518607434267
        0.0519529703788
        0.0520450696078
        0.0521370405421
        0.0522288826104
        0.0523205952409
        0.0524121778621
        0.0525036099269
        0.052594840783
        0.0526858701402
        0.0527767003661
        0.052867333828
        0.0529577728935
        0.0530480199301
        0.0531380773053
        0.0532279473866
        0.0533176325415
        0.0534071351375
        0.0534964575422
        0.0535856021229
        0.0536745712473
        0.0537633672827
        0.0538519925968
        0.053940449557
        0.0540287405308
        0.0541168678858
        0.0542048339893
        0.054292641209
        0.0543802919123
        0.0544677884668
        0.0545551332399
        0.0546423285991
        0.0547293769119
        0.0548162805459
        0.0549030418685
        0.0549896632472
        0.0550761470496
        0.0551624956432
        0.0552487113954
        0.0553347966737
        0.0554207538457
        0.0555065852788
        0.0555922933406
        0.0556778803985
        0.0557633488201
        0.0558487009729
        0.0559339392243
        0.0560190659418
        0.0561040834931
        0.0561889942455
        0.0562738005665
        0.0563585048238
        0.0564431093847
        0.0565276166168
        0.0566120288875
        0.0566963485644
        0.056780578015
        0.0568647196068
        0.0569487757073
        0.0570327486839
        0.0571166409043
        0.0572004547358
        0.057284192546
        0.0573678567024
        0.0574514495725
        0.0575349735238
        0.0576184309238
        0.0577018241399
        0.0577851555398
        0.0578684274909
        0.0579516423607
        0.0580348025167
        0.0581179103264
        0.0582009681573
        0.0582839783769
        0.0583669433527
        0.0584498654523
        0.058532747043
        0.0586155904925
        0.0586983981682
        0.0587811724376
        0.0588639156682
        0.0589466302276
        0.0590293184832
        0.0591119828025
        0.0591946255531
        0.0592772491023
        0.0593598558178
        0.0594424480671
        0.0595250282176
        0.0596075986368
        0.0596901616923
        0.0597727197515
        0.059855275182
        0.0599378303512
        0.0600203876266
        0.0601029493758
        0.0601855179663
        0.0602680957655
        0.060350685141
        0.0604332884602
        0.0605159080907
        0.0605985463999
        0.0606812057554
        0.0607638885247
        0.0608465970752
        0.0609293337745
        0.0610121009901
        0.0610949010895
        0.0611777364401
        0.0612606094095
        0.0613435223652
        0.0614264776746
        0.0615094777054
        0.0615925248249
        0.0616756214007
        0.0617587698003
        0.0618419723912
        0.0619252315409
        0.0620085496168
        0.0620919289866
        0.0621753720177
        0.0622588810775
        0.0623424585337
        0.0624261067536
        0.0625098281049
        0.062593624955
        0.0626774996713
        0.0627614546215
        0.062845492173
        0.0629296146933
        0.0630138245499
        0.0630981040595
        0.0631823894523
        0.0632666755855
        0.0633509622354
        0.0634352491784
        0.0635195361911
        0.0636038230498
        0.0636881095309
        0.0637723954109
        0.0638566804662
        0.0639409644731
        0.0640252472081
        0.0641095284477
        0.0641938079681
        0.064278085546
        0.0643623609576
        0.0644466339794
        0.0645309043878
        0.0646151719593
        0.0646994364702
        0.0647836976969
        0.064867955416
        0.0649522094037
        0.0650364594366
        0.065120705291
        0.0652049467433
        0.06528918357
        0.0653734155475
        0.0654576424522
        0.0655418640606
        0.065626080149
        0.0657102904938
        0.0657944948715
        0.0658786930586
        0.0659628848313
        0.0660470699662
        0.0661312482396
        0.066215419428
        0.0662995833078
        0.0663837396554
        0.0664678882472
        0.0665520288596
        0.0666361612691
        0.0667202852521
        0.066804400585
        0.0668885070442
        0.0669726044061
        0.0670566924472
        0.0671407709439
        0.0672248396725
        0.0673088984095
        0.0673929469314
        0.0674769850144
        0.0675610124352
        0.06764502897
        0.0677290343953
        0.0678130284875
        0.0678970110231
        0.0679809817784
        0.0680649405298
        0.0681488870539
        0.0682328211269
        0.0683167425254
        0.0684006510257
        0.0684845464042
        0.0685684284374
        0.0686522969018
        0.0687361515736
        0.0688199922293
        0.0689038186454
        0.0689876305983
        0.0690714278643
        0.0691552102199
        0.0692389774416
        0.0693227293056
        0.0694064655886
        0.0694901860668
        0.0695738905166
        0.0696575787146
        0.0697412504371
        0.0698249054606
        0.0699085435614
        0.069992164516
        0.0700757681008
        0.0701593540922
        0.0702429222666
        0.0703264724005
        0.0704100042702
        0.0704935176522
        0.070577012323
        0.0706604880588
        0.0707439446362
        0.0708273818315
        0.0709107994212
        0.0709941971818
        0.0710775748895
        0.0711609323208
        0.0712442692522
        0.0713275854601
        0.0714108807208
        0.0714941548109
        0.0715774075066
        0.0716606385845
        0.071743847821
        0.0718270349924
        0.0719101998752
        0.0719933422458
        0.0720764618806
        0.0721595585561
        0.0722426320487
        0.0723256821347
        0.0724087085906
        0.0724917111929
        0.0725746897178
        0.072657643942
        0.0727405736417
        0.0728234785933
        0.0729063585734
        0.0729892133583
        0.0730720427245
        0.0731548464483
        0.0732376243062
        0.0733203760746
        0.0734031015298
        0.0734858004485
        0.0735684783599
        0.073651158441
        0.0737338426872
        0.0738165305574
        0.0738992215106
        0.0739819150056
        0.0740646105012
        0.0741473074565
        0.0742300053302
        0.0743127035812
        0.0743954016685
        0.0744780990509
        0.0745607951873
        0.0746434895366
        0.0747261815576
        0.0748088707094
        0.0748915564507
        0.0749742382404
        0.0750569155374
        0.0751395878007
        0.075222254489
        0.0753049150613
        0.0753875689765
        0.0754702156934
        0.075552854671
        0.0756354853681
        0.0757181072436
        0.0758007197563
        0.0758833223653
        0.0759659145294
        0.0760484957073
        0.0761310653582
        0.0762136229407
        0.0762961679139
        0.0763786997365
        0.0764612178676
        0.0765437217659
        0.0766262108903
        0.0767086846998
        0.0767911426533
        0.0768735842095
        0.0769560088275
        0.077038415966
        0.077120805084
        0.0772031756403
        0.0772855270939
        0.0773678589036
        0.0774501705283
        0.077532461427
        0.0776147310584
        0.0776969788815
        0.0777792043551
        0.0778614069382
        0.0779435860896
        0.0780257412683
        0.078107871933
        0.0781899775427
        0.0782720575563
        0.0783541114327
        0.0784361386307
        0.0785181386092
        0.0786001108271
        0.0786820547434
        0.0787639698168
        0.0788458555063
        0.0789277112708
        0.0790095365691
        0.0790913308602
        0.0791730936029
        0.079254824256
        0.0793365222786
        0.0794181871295
        0.0794998182675
        0.0795814151515
        0.0796629772405
        0.0797445039933
        0.0798259948689
        0.079907449326
        0.0799888668236
        0.0800702468205
        0.0801515887757
        0.0802328921481
        0.0803141563964
        0.0803953809797
        0.0804765653568
        0.0805577089865
        0.0806388113278
        0.0807198718396
        0.0808008899807
        0.08088186521
        0.0809627969865
        0.0810436847689
        0.0811245280162
        0.0812053261873
        0.0812860787411
        0.0813667851364
        0.0814474448321
        0.0815280572871
        0.0816086219603
        0.0816891383106
        0.0817696057969
        0.081850023878
        0.0819303920129
        0.0820107096604
        0.0820909762794
        0.0821711913288
        0.0822513542675
        0.0823314645543
        0.0824115216483
        0.0824915250081
        0.0825714740928
        0.0826513683613
        0.0827312072723
        0.0828109902848
        0.0828907168576
        0.0829703864498
        0.0830499985201
        0.0831295525274
        0.0832090479306
        0.0832884841886
        0.0833678607604
        0.0834471771047
        0.0835264326804
        0.0836056269465
        0.0836847593619
        0.0837638333701
        0.0838428697551
        0.0839218714742
        0.0840008383923
        0.0840797703744
        0.0841586672854
        0.0842375289903
        0.084316355354
        0.0843951462416
        0.084473901518
        0.0845526210482
        0.0846313046971
        0.0847099523298
        0.0847885638111
        0.0848671390061
        0.0849456777797
        0.0850241799969
        0.0851026455227
        0.085181074222
        0.0852594659598
        0.0853378206011
        0.0854161380108
        0.0854944180539
        0.0855726605954
        0.0856508655002
        0.0857290326334
        0.0858071618598
        0.0858852530445
        0.0859633060524
        0.0860413207485
        0.0861192969978
        0.0861972346652
        0.0862751336157
        0.0863529937142
        0.0864308148258
        0.0865085968154
        0.086586339548
        0.0866640428885
        0.086741706702
        0.0868193308533
        0.0868969152074
        0.0869744596294
        0.0870519639842
        0.0871294281367
        0.087206851952
        0.0872842352949
        0.0873615780306
        0.0874388800238
        0.0875161411397
        0.0875933612431
        0.0876705401991
        0.0877476778726
        0.0878247741285
        0.087901828832
        0.0879788418478
        0.088055813041
        0.0881327422766
        0.0882096294195
        0.0882864743347
        0.0883632768872
        0.0884400369419
        0.0885167543638
        0.0885934290178
        0.088670060769
        0.0887466494823
        0.0888231950227
        0.0888996972552
        0.0889761560446
        0.0890525712561
        0.0891289427545
        0.0892052704048
        0.089281554072
        0.0893577936211
        0.089433988917
        0.0895101398247
        0.0895862462092
        0.0896623079354
        0.0897383248684
        0.089814296873
        0.0898902238142
        0.0899661055571
        0.0900419419665
        0.0901177329075
        0.0901934782451
        0.0902691778441
        0.0903448315696
        0.0904204392865
        0.0904960008598
        0.0905715161544
        0.0906469850355
        0.0907224073678
        0.0907977830164
        0.0908731118462
        0.0909483937222
        0.0910236285095
        0.0910988160728
        0.0911739562773
        0.0912490489879
        0.0913240940696
        0.0913990913873
        0.0914740408059
        0.0915489421906
        0.0916237954061
        0.0916986003176
        0.09177335679
        0.0918480646882
        0.0919227238772
        0.0919973342219
        0.0920718955875
        0.0921464078387
        0.0922208708407
        0.0922952844583
        0.0923696485565
        0.0924439630003
        0.0925182276547
        0.0925924423846
        0.092666607055
        0.0927407215309
        0.0928147856772
        0.092888799359
        0.0929627624411
        0.0930366747886
